src/svg/36/market_outline_36.svg

<svg fill="none" height="36" viewBox="0 0 36 36" width="36" xmlns="http://www.w3.org/2000/svg"><g fill="currentColor"><path d="m10 10.5c0-4.41828 3.5817-8 8-8s8 3.58172 8 8h-2.5c0-3.03757-2.4624-5.5-5.5-5.5s-5.5 2.46243-5.5 5.5z"/><path d="m24.5 16c-.8284 0-1.5.6716-1.5 1.5s.6716 1.5 1.5 1.5 1.5-.6716 1.5-1.5-.6716-1.5-1.5-1.5z"/><path d="m10 17.5c0-.8284.6716-1.5 1.5-1.5s1.5.6716 1.5 1.5-.6716 1.5-1.5 1.5-1.5-.6716-1.5-1.5z"/><path clip-rule="evenodd" d="m8.85552 10.5015 18.01668-.0015c1.7831 0 2.4296.1857 3.0815.5343.6518.3486 1.1634.8602 1.512 1.512.3486.6519.5343 1.2984.5343 3.0815v8.0286c0 3.0717-.3713 4.4473-1.0685 5.751-.6973 1.3037-1.7204 2.3268-3.0241 3.0241-1.3037.6972-2.6793 1.0685-5.751 1.0685h-8.3128c-3.0717 0-4.44728-.3713-5.75098-1.0685-1.30371-.6973-2.32686-1.7204-3.02409-3.0241s-1.06853-2.6793-1.06853-5.751v-8.0286c0-1.7831.18565-2.4296.53427-3.0815.34861-.6518.86019-1.1634 1.51204-1.512.61754-.3303 1.23035-.5143 2.80921-.5328zm.0488 2.4992-.38743.0063c-.7594.0205-1.02418.0888-1.29158.2318-.21619.1156-.3709.2703-.48651.4865l-.0608.125c-.12065.2784-.17072.6306-.17725 1.554l-.00075 8.2521c0 2.46.21641 3.5311.77306 4.572.46423.868 1.13052 1.5343 1.99855 1.9985.95039.5083 1.92589.7329 3.96079.7681l.6112.005h8.3128l.6112-.005c2.0349-.0352 3.0104-.2598 3.9608-.7681.868-.4642 1.5343-1.1305 1.9985-1.9985.5083-.9504.7329-1.9259.7681-3.9608l.005-.6112v-8.0286c0-1.2483-.0628-1.5734-.2388-1.9025-.1156-.2162-.2703-.3709-.4865-.4865l-.125-.0608c-.2784-.1206-.6306-.1707-1.554-.1773z" fill-rule="evenodd"/></g></svg>

<svg width="36" height="36" viewBox="0 0 36 36" fill="none" xmlns="http://www.w3.org/2000/svg">
<path fill-rule="evenodd" clip-rule="evenodd" d="M10 10.5C10 6.08172 13.5817 2.5 18 2.5C22.4183 2.5 26 6.08172 26 10.5H23.5C23.5 7.46243 21.0376 5 18 5C14.9624 5 12.5 7.46243 12.5 10.5H10ZM8.85552 10.5015L26.8722 10.5C28.6553 10.5 29.3018 10.6857 29.9537 11.0343C30.6055 11.3829 31.1171 11.8945 31.4657 12.5463C31.8143 13.1982 32 13.8447 32 15.6278V23.6564C32 26.7281 31.6287 28.1037 30.9315 29.4074C30.2342 30.7111 29.2111 31.7342 27.9074 32.4315C26.6037 33.1287 25.2281 33.5 22.1564 33.5H13.8436C10.7719 33.5 9.39632 33.1287 8.09262 32.4315C6.78891 31.7342 5.76576 30.7111 5.06853 29.4074C4.3713 28.1037 4 26.7281 4 23.6564V15.6278C4 13.8447 4.18565 13.1982 4.53427 12.5463C4.88288 11.8945 5.39446 11.3829 6.04631 11.0343C6.66385 10.704 7.27666 10.52 8.85552 10.5015ZM8.90432 13.0007L8.51689 13.007C7.75749 13.0275 7.49271 13.0958 7.22531 13.2388C7.00912 13.3544 6.85441 13.5091 6.7388 13.7253L6.678 13.8503C6.55735 14.1287 6.50728 14.4809 6.50075 15.4043L6.5 23.6564C6.5 26.1164 6.71641 27.1875 7.27306 28.2284C7.73729 29.0964 8.40358 29.7627 9.27161 30.2269C10.222 30.7352 11.1975 30.9598 13.2324 30.995L13.8436 31H22.1564L22.7676 30.995C24.8025 30.9598 25.778 30.7352 26.7284 30.2269C27.5964 29.7627 28.2627 29.0964 28.7269 28.2284C29.2352 27.278 29.4598 26.3025 29.495 24.2676L29.5 23.6564V15.6278C29.5 14.3795 29.4372 14.0544 29.2612 13.7253C29.1456 13.5091 28.9909 13.3544 28.7747 13.2388L28.6497 13.178C28.3713 13.0574 28.0191 13.0073 27.0957 13.0007H8.90432ZM24.5 16C23.6716 16 23 16.6716 23 17.5C23 18.3284 23.6716 19 24.5 19C25.3284 19 26 18.3284 26 17.5C26 16.6716 25.3284 16 24.5 16ZM10 17.5C10 16.6716 10.6716 16 11.5 16C12.3284 16 13 16.6716 13 17.5C13 18.3284 12.3284 19 11.5 19C10.6716 19 10 18.3284 10 17.5Z" fill="currentColor"/>
</svg>
